capitaldcolon.svg

<svg clip-rule="evenodd" fill-rule="evenodd" viewBox="0 0 112 112" xmlns="http://www.w3.org/2000/svg"><g fill-rule="nonzero" stroke-width=".09"><path d="m46.48 6.49c33.99-8.14 67.93 26.37 59.21 60.22-5.71 33.48-48.63 51.53-76.6 32.25-17.06-10.55-26.57-31.89-22.74-51.63 3.29-20.17 20.02-37.2 40.13-40.84" fill="#86c8dd" stroke="#86c8dd"/><g stroke="#000"><path d="m52.75 0h6.33c27.46 1.67 51.69 24.84 52.92 52.61v7.09c-1.23 27.33-24.93 51.02-52.25 52.3h-7.09c-27.64-1.22-50.75-25.18-52.66-52.49v-6.53c1.81-27.64 25.13-51.04 52.75-52.98m-6.27 6.49c-20.11 3.64-36.84 20.67-40.13 40.84-3.83 19.74 5.68 41.08 22.74 51.63 27.97 19.28 70.89 1.23 76.6-32.25 8.72-33.85-25.22-68.36-59.21-60.22z"/><path d="m85.51 28.52c4.26-1.18 6.44 5.6 2.14 7.05-4.5 1.97-7.17-6.02-2.14-7.05z"/><path d="m38.48 35.78c4.48-1.94 7.62 5.82 2.7 7.43-4.77 2.26-7.98-6.11-2.7-7.43z"/><path d="m51.522 56.039c7.523-2.737 27.469-3.623 31.031-2.87 2.433.514 4.065 3.069 4.197 5.487.327 6.021 2.641 26.588-11.03 30.044-11.633 2.941-28.363 7.777-34.747 4.592s-6.582-15.659-3.558-23.701c2.737-9.679 7.202-11.039 14.107-13.552z"/></g><path d="m39.58 70.86c5.12-17.49 35.097-17.319 42.03-15.55s1.611 20.673-.429 26.162c-1.656 4.455-7.211 5.568-11.811 6.768-4.14-12.77-17.28-17.98-29.79-17.38z" fill="#4e5aaf" stroke="#4e5aaf"/><path d="m44.06 92.91c-9.09-3.06-7.28-15.02-4.48-22.05 12.51-.6 25.65 4.61 29.79 17.38-8.33 1.85-16.71 5.07-25.31 4.67z" fill="#a85354" stroke="#a85354"/></g></svg>

<svg width="100%" height="100%" viewBox="0 0 112 112" version="1.1" xmlns="http://www.w3.org/2000/svg" xmlns:xlink="http://www.w3.org/1999/xlink" xml:space="preserve" xmlns:serif="http://www.serif.com/" fill-rule="evenodd" clip-rule="evenodd"><g id="_-86c8ddff" serif:id="#86c8ddff"><path d="M46.48,6.49C80.47,-1.65 114.41,32.86 105.69,66.71C99.98,100.19 57.06,118.24 29.09,98.96C12.03,88.41 2.52,67.07 6.35,47.33C9.64,27.16 26.37,10.13 46.48,6.49" fill="rgb(134,200,221)" fill-rule="nonzero" stroke="rgb(134,200,221)" stroke-width="0.09px"/></g><g id="_-000000ff" serif:id="#000000ff"><path d="M52.75,0L59.08,0C86.54,1.67 110.77,24.84 112,52.61L112,59.7C110.77,87.03 87.07,110.72 59.75,112L52.66,112C25.02,110.78 1.91,86.82 0,59.51L0,52.98C1.81,25.34 25.13,1.94 52.75,0M46.48,6.49C26.37,10.13 9.64,27.16 6.35,47.33C2.52,67.07 12.03,88.41 29.09,98.96C57.06,118.24 99.98,100.19 105.69,66.71C114.41,32.86 80.47,-1.65 46.48,6.49Z" fill-rule="nonzero" stroke="black" stroke-width="0.09px"/><path d="M85.51,28.52C89.77,27.34 91.95,34.12 87.65,35.57C83.15,37.54 80.48,29.55 85.51,28.52Z" fill-rule="nonzero" stroke="black" stroke-width="0.09px"/><path d="M38.48,35.78C42.96,33.84 46.1,41.6 41.18,43.21C36.41,45.47 33.2,37.1 38.48,35.78Z" fill-rule="nonzero" stroke="black" stroke-width="0.09px"/><path d="M51.522,56.039C59.045,53.302 78.991,52.416 82.553,53.169C84.986,53.683 86.618,56.238 86.75,58.656C87.077,64.677 89.391,85.244 75.72,88.7C64.087,91.641 47.357,96.477 40.973,93.292C34.589,90.107 34.391,77.633 37.415,69.591C40.152,59.912 44.617,58.552 51.522,56.039Z" fill-rule="nonzero" stroke="black" stroke-width="0.09px"/></g><g id="_-4e5aafff" serif:id="#4e5aafff"><path d="M39.58,70.86C44.7,53.37 74.677,53.541 81.61,55.31C88.543,57.079 83.221,75.983 81.181,81.472C79.525,85.927 73.97,87.04 69.37,88.24C65.23,75.47 52.09,70.26 39.58,70.86Z" fill="rgb(78,90,175)" fill-rule="nonzero" stroke="rgb(78,90,175)" stroke-width="0.09px"/></g><g id="_-a85354ff" serif:id="#a85354ff"><path d="M44.06,92.91C34.97,89.85 36.78,77.89 39.58,70.86C52.09,70.26 65.23,75.47 69.37,88.24C61.04,90.09 52.66,93.31 44.06,92.91Z" fill="rgb(168,83,84)" fill-rule="nonzero" stroke="rgb(168,83,84)" stroke-width="0.09px"/></g></svg>
